X:1
T: The Craig of Barns
C:
R:Strathspey
Q: 128
K:Gm
M:4/4
L:1/16
|:d4 c3A GG3 G3A|cF3 c3A cF3 A2c2|d4 c3A GG3 G3A|cF3 c3A G4G4|
d4 c3A GG3 G3A|cF3 c3A cF3 A2c2|d4 c3A GG3 G3A|cF3 c3A G4 G2A2|
F3A c3d cA3 c4|d3=e f3a g3f d3e|fa3 df3 F3G A3c|df3 c3A G4G4|
F3A c3d cA3 c4|d3=e f3a g3f d3e|fa3 df3 F3G A3c|df3 c3A G4G4:|
